svg/u1f5fe.svg

<svg viewBox="0 0 128 128" xmlns="http://www.w3.org/2000/svg">
  <path d="M116.63,124.22H11.32c-4.15,0-7.52-3.37-7.52-7.52V11.39c0-4.15,3.37-7.52,7.52-7.52h105.3 c4.15,0,7.52,3.37,7.52,7.52v105.3C124.15,120.85,120.78,124.22,116.63,124.22z" fill="#1F87FD"/>
  <path d="M91.31,6.04c-1.49,0.05-2.13,2.67-1.87,3.98s0.92,5.11,0.82,6.42c-0.1,1.36-2.1,3.32-2.27,4.46 c-0.17,1.14,0.15,2.43-0.03,2.91s-1.31,1.78-1.84,1.6s-1.78-1.49-2.97-1.66c-1.19-0.18-1.55,0.83-1.43,1.37 c0.12,0.53,0.71,1.43,0.3,2.14s-1.9,1.37-2.79,2.56s-0.83,2.32-0.71,2.79c0.12,0.48,0.65,1.55,1.07,2.08 c0.42,0.53,1.13,0.89,1.01,1.96s-1.13,2.73-0.36,3.63s2.2-0.18,2.56-0.53s0.83-1.07,1.72-1.31s2.5-0.71,2.5-1.78s-1.9-1.6-2.91-1.78 s-2.08-1.55-1.96-2.26c0.12-0.71,0.83-1.19,1.66-1.19s1.07,1.55,2.61,1.6s2.61-2.67,4.1-2.61c1.49,0.06,2.26,2.08,4.04,3.03 c1.78,0.95,2.97,1.25,3.39,1.37c0.42,0.12,0.77,0.83,1.9,0.83s2.2-3.86,2.56-4.46c0.36-0.59,1.9-2.67,2.61-2.79 c0.71-0.12,3.21,0.18,5.35-0.65c2.14-0.83,4.58-1.78,4.7-2.61s-3.15-2.08-3.09-4.22c0.06-2.14,1.31-3.03,0.71-3.68 c-0.59-0.65-1.43-0.3-2.5,0.48c-1.07,0.77-2.02,1.78-2.5,1.6c-0.48-0.18-2.02-1.9-2.79-2.08c-0.77-0.18-2.02,0.06-2.5-0.3 c-0.48-0.36-2.26-1.66-5.17-5.41C94.69,8.24,93.05,5.98,91.31,6.04z" fill="#7ADD8A"/>
  <path d="M10.85,108.88c-0.76,0.15-2.51,0.75-2.59,1.45c-0.1,0.91,0.47,1.18,1.82,1.18s1.92-1.11,1.92-1.55 S11.19,108.82,10.85,108.88z" fill="#7ADD8A"/>
  <path d="M20.07,109.79c-0.36-0.55-1.72-0.32-2.22,0.47c-0.4,0.64-0.24,2.99,0.84,2.76 c0.86-0.19,0.84-1.24,1.04-1.48S20.64,110.67,20.07,109.79z" fill="#7ADD8A"/>
  <path d="M23.57,98.78c-0.57-0.2-1.42,0-2.52,0.81s-2.12,2.48-2.52,2.69c-0.41,0.2-2.44,1.02-2.85,1.34 s-0.61,2.85,0.41,3.58s1.67,0.77,2.6,0.85s2.28-0.2,2.48,0.24s0.08,2.81-0.2,3.3c-0.28,0.49-1.34,1.42-1.46,2.85 c-0.12,1.42-0.28,3.34-0.16,3.74s3.62,1.71,4.03,1.79s3.42-2.93,3.7-3.82c0.28-0.9,0.65-4.15,0.77-4.52 c0.12-0.37,2.03-3.87,2.12-4.68s-0.28-2.52-0.61-2.93s-0.45-1.75-1.1-2.4c-0.65-0.65-2.52-0.49-2.52-0.49L23.57,98.78z" fill="#7ADD8A"/>
  <path d="M70.93,65.33c-0.75-0.3-1.28,1.04-1.64,1.4c-0.36,0.36-0.88,1.44-0.44,2.08 c0.44,0.64,1.32,1,1.56,0.76s1.18-1.19,1.08-2.16C71.37,66.25,71.13,65.41,70.93,65.33z" fill="#7ADD8A"/>
  <path d="M39.53,98.22c0.58-0.66,1.56-2.73,3.08-2.85c1.13-0.09,3.12,1.09,3.51,1.52 c0.39,0.43,1.33,1.83,1.17,2.42c-0.16,0.58-1.13,2.03-2.07,3.08c-0.94,1.05-1.64,1.91-2.3,1.75c-0.66-0.16-1.25-0.9-2.26-0.9 c-1.01,0-2.96,3.04-3.35,3.7c-0.39,0.66-0.86,1.68-1.52,1.68s-2.38-2.07-2.88-3.2c-0.51-1.13-1.01-1.79-0.86-2.61 c0.08-0.4,1.95-2.49,2.07-2.77c0.12-0.27,0.51-1.99,1.75-2.3s1.25,0.58,2.26,0.7S39.4,98.37,39.53,98.22z" fill="#7ADD8A"/>
  <path d="M22.99,96.42c-0.22,0.4,0.22,2.59,0.7,2.69c0.48,0.11,4.58-0.48,6.73-0.81 c2.15-0.32,8.89-3.39,9.8-3.39s1.45,0.32,1.89,0.05c0.43-0.27,1.83-1.56,2.32-1.83c0.48-0.27,2.15-0.7,2.15-0.7s1.62,1.02,2.69,1.13 c1.08,0.11,2.32-1.24,2.59-0.92c0.27,0.32-0.48,1.78-0.97,2.69c-0.48,0.92-1.51,2.42-1.35,3.02c0.16,0.59,0.92,2.32,1.56,2.91 s1.78,1.78,2.42,1.67s3.93-5.71,4.2-5.76c0.27-0.05,3.39-0.59,3.34-1.35c-0.05-0.75-1.35-0.65-1.51-0.97 c-0.16-0.32-1.83-1.4-1.67-1.89c0.16-0.48,0.81-1.62,1.78-1.67s2.91,2.1,3.82,2.15c0.92,0.05,3.77,0.48,4.52,0.22 c0.75-0.27,1.94-1.78,2.48-1.89c0.54-0.11,1.45,0.22,1.45,0.22s0,1.78,1.02,1.67c1.02-0.11,1.13-0.81,1.29-1.83 c0.16-1.02,0.81-1.83,0.81-1.83s1.35-1.45,2.26-2.15c0.92-0.7,1.35-2.42,1.83-2.42c0.48,0,1.02,0.92,0.86,2.15s-0.97,1.94-0.97,2.91 c0,0.97,0.16,1.94,0.81,1.94c0.65,0,0.97-1.4,1.29-2.05c0.32-0.65,2.85-3.72,2.96-4.25c0.11-0.54-0.43-4.79-0.22-5.39 c0.22-0.59,1.78-2.69,2.21-5.6c0.43-2.91-0.43-7.11,0.38-8.24s2.32-0.38,2.91-1.24c0.59-0.86,0.7-3.18,1.29-4.58 s2.26-3.99,2.26-6.25s-4.42-7.86-4.25-9.16c0.16-1.29,0.7-2.69,0.38-3.45c-0.32-0.75-2.32-2.37-3.34-2.32 c-1.02,0.05-1.02,1.99-0.59,2.26c0.43,0.27,0.97-0.43,1.51-0.32s1.56,1.24,0.11,2.37c-1.45,1.13-2.32,0.27-2.48,0 c-0.16-0.27-0.16-2.53-0.86-2.48c-0.7,0.05-1.45,0.65-1.51,1.13c-0.05,0.48,0.32,1.18-0.05,1.83s-1.72,1.35-2.15,2.1 c-0.43,0.75,0.16,10.18,0.11,11.15c-0.05,0.97-1.35,2.64-1.83,4.2c-0.48,1.56-1.56,4.52-2.37,5.12c-0.81,0.59-1.4,0.54-1.99,1.24 s-2.37,3.55-3.18,4.15s-4.36,3.39-5.66,3.18s-2.64-1.02-2.53-1.99c0.11-0.97,1.62-1.78,1.18-2.32c-0.43-0.54-3.18,0.54-3.88,1.51 c-0.7,0.97,0.11,2.91-0.05,3.55c-0.16,0.65-1.02,2.91-1.29,3.45s-2.1,1.94-2.48,2.91s-0.22,2.21-0.43,2.59 c-0.22,0.38-2.32,1.62-3.12,1.56c-0.81-0.05-2.42-1.89-3.45-1.89s-2.59,1.13-3.82,1.4c-1.24,0.27-5.49,0-7.11-0.16 s-3.82,1.89-4.9,2.75c-1.08,0.86-4.31,3.44-4.9,4.09C26.49,94.96,23.31,95.82,22.99,96.42z" fill="#7ADD8A"/>
  <radialGradient id="SVGID_1_" cx="124.4848" cy="47.0852" gradientUnits="userSpaceOnUse" r="43.4902">
    <stop offset="0.4104" stop-color="#E3DDA6"/>
    <stop offset="0.8704" stop-color="#E3DDA6" stop-opacity="0"/>
  </radialGradient>
  <path d="M91.31,6.04c-1.49,0.05-2.13,2.67-1.87,3.98s0.92,5.11,0.82,6.42 c-0.1,1.36-2.1,3.32-2.27,4.46c-0.17,1.14,0.15,2.43-0.03,2.91s-1.31,1.78-1.84,1.6s-1.78-1.49-2.97-1.66 c-1.19-0.18-1.55,0.83-1.43,1.37c0.12,0.53,0.71,1.43,0.3,2.14s-1.9,1.37-2.79,2.56s-0.83,2.32-0.71,2.79 c0.12,0.48,0.65,1.55,1.07,2.08c0.42,0.53,1.13,0.89,1.01,1.96s-1.13,2.73-0.36,3.63s2.2-0.18,2.56-0.53s0.83-1.07,1.72-1.31 s2.5-0.71,2.5-1.78s-1.9-1.6-2.91-1.78s-2.08-1.55-1.96-2.26c0.12-0.71,0.83-1.19,1.66-1.19s1.07,1.55,2.61,1.6s2.61-2.67,4.1-2.61 c1.49,0.06,2.26,2.08,4.04,3.03c1.78,0.95,2.97,1.25,3.39,1.37c0.42,0.12,0.77,0.83,1.9,0.83s2.2-3.86,2.56-4.46 c0.36-0.59,1.9-2.67,2.61-2.79c0.71-0.12,3.21,0.18,5.35-0.65c2.14-0.83,4.58-1.78,4.7-2.61s-3.15-2.08-3.09-4.22 c0.06-2.14,1.31-3.03,0.71-3.68c-0.59-0.65-1.43-0.3-2.5,0.48c-1.07,0.77-2.02,1.78-2.5,1.6c-0.48-0.18-2.02-1.9-2.79-2.08 c-0.77-0.18-2.02,0.06-2.5-0.3c-0.48-0.36-2.26-1.66-5.17-5.41C94.69,8.24,93.05,5.98,91.31,6.04z" fill="url(#SVGID_1_)"/>
  <radialGradient id="SVGID_2_" cx="106.7662" cy="84.5232" gradientTransform="matrix(-0.7456 -0.6664 1.145 -1.281 89.5911 263.9478)" gradientUnits="userSpaceOnUse" r="41.9848">
    <stop offset="0.3735" stop-color="#E3DDA6"/>
    <stop offset="0.8263" stop-color="#E3DDA6" stop-opacity="0"/>
  </radialGradient>
  <path d="M22.99,96.42c-0.22,0.4,0.22,2.59,0.7,2.69c0.48,0.11,4.58-0.48,6.73-0.81 c2.15-0.32,8.89-3.39,9.8-3.39s1.45,0.32,1.89,0.05c0.43-0.27,1.83-1.56,2.32-1.83c0.48-0.27,2.15-0.7,2.15-0.7s1.62,1.02,2.69,1.13 c1.08,0.11,2.32-1.24,2.59-0.92c0.27,0.32-0.48,1.78-0.97,2.69c-0.48,0.92-1.51,2.42-1.35,3.02c0.16,0.59,0.92,2.32,1.56,2.91 s1.78,1.78,2.42,1.67s3.93-5.71,4.2-5.76c0.27-0.05,3.39-0.59,3.34-1.35c-0.05-0.75-1.35-0.65-1.51-0.97 c-0.16-0.32-1.83-1.4-1.67-1.89c0.16-0.48,0.81-1.62,1.78-1.67s2.91,2.1,3.82,2.15c0.92,0.05,3.77,0.48,4.52,0.22 c0.75-0.27,1.94-1.78,2.48-1.89c0.54-0.11,1.45,0.22,1.45,0.22s0,1.78,1.02,1.67c1.02-0.11,1.13-0.81,1.29-1.83 c0.16-1.02,0.81-1.83,0.81-1.83s1.35-1.45,2.26-2.15c0.92-0.7,1.35-2.42,1.83-2.42c0.48,0,1.02,0.92,0.86,2.15s-0.97,1.94-0.97,2.91 c0,0.97,0.16,1.94,0.81,1.94c0.65,0,0.97-1.4,1.29-2.05c0.32-0.65,2.85-3.72,2.96-4.25c0.11-0.54-0.43-4.79-0.22-5.39 c0.22-0.59,1.78-2.69,2.21-5.6c0.43-2.91-0.43-7.11,0.38-8.24s2.32-0.38,2.91-1.24c0.59-0.86,0.7-3.18,1.29-4.58 s2.26-3.99,2.26-6.25s-4.42-7.86-4.25-9.16c0.16-1.29,0.7-2.69,0.38-3.45c-0.32-0.75-2.32-2.37-3.34-2.32 c-1.02,0.05-1.02,1.99-0.59,2.26c0.43,0.27,0.97-0.43,1.51-0.32s1.56,1.24,0.11,2.37c-1.45,1.13-2.32,0.27-2.48,0 c-0.16-0.27-0.16-2.53-0.86-2.48c-0.7,0.05-1.45,0.65-1.51,1.13c-0.05,0.48,0.32,1.18-0.05,1.83s-1.72,1.35-2.15,2.1 c-0.43,0.75,0.16,10.18,0.11,11.15c-0.05,0.97-1.35,2.64-1.83,4.2c-0.48,1.56-1.56,4.52-2.37,5.12c-0.81,0.59-1.4,0.54-1.99,1.24 s-2.37,3.55-3.18,4.15s-4.36,3.39-5.66,3.18s-2.64-1.02-2.53-1.99c0.11-0.97,1.62-1.78,1.18-2.32c-0.43-0.54-3.18,0.54-3.88,1.51 c-0.7,0.97,0.11,2.91-0.05,3.55c-0.16,0.65-1.02,2.91-1.29,3.45s-2.1,1.94-2.48,2.91s-0.22,2.21-0.43,2.59 c-0.22,0.38-2.32,1.62-3.12,1.56c-0.81-0.05-2.42-1.89-3.45-1.89s-2.59,1.13-3.82,1.4c-1.24,0.27-5.49,0-7.11-0.16 s-3.82,1.89-4.9,2.75c-1.08,0.86-4.31,3.44-4.9,4.09C26.49,94.96,23.31,95.82,22.99,96.42z" fill="url(#SVGID_2_)"/>
</svg>

<svg viewBox="0 0 128 128" xmlns="http://www.w3.org/2000/svg">
  <defs>
    <radialGradient id="SVGID_1_" cx="124.4848" cy="47.0852" gradientUnits="userSpaceOnUse" r="43.4902">
      <stop offset="0.4104" stop-color="#E3DDA6"/>
      <stop offset="0.8704" stop-color="#E3DDA6" stop-opacity="0"/>
    </radialGradient>
    <radialGradient id="SVGID_2_" cx="-135.929996" cy="4.730027" gradientTransform="matrix(-0.7456 -0.6664 1.145 -1.281 0 0)" gradientUnits="userSpaceOnUse" r="41.9848">
      <stop offset="0.3735" stop-color="#E3DDA6"/>
      <stop offset="0.8263" stop-color="#E3DDA6" stop-opacity="0"/>
    </radialGradient>
  </defs>
  <path d="M116.63,124.22 L11.32,124.22 C7.17,124.22 3.8,120.85 3.8,116.7 L3.8,11.39 C3.8,7.24 7.17,3.87 11.32,3.87 L116.62,3.87 C120.77,3.87 124.14,7.24 124.14,11.39 L124.14,116.69 C124.15,120.85 120.78,124.22 116.63,124.22 Z" fill="#1F87FD"/>
  <path d="M91.31,6.04 C89.82,6.09 89.18,8.71 89.44,10.02 C89.7,11.33 90.36,15.13 90.26,16.44 C90.16,17.8 88.16,19.76 87.99,20.9 C87.82,22.04 88.14,23.33 87.96,23.81 C87.78,24.29 86.65,25.59 86.12,25.41 C85.59,25.23 84.34,23.92 83.15,23.75 C81.96,23.57 81.6,24.58 81.72,25.12 C81.84,25.65 82.43,26.55 82.02,27.26 C81.61,27.97 80.12,28.63 79.23,29.82 C78.34,31.01 78.4,32.14 78.52,32.61 C78.64,33.09 79.17,34.16 79.59,34.69 C80.01,35.22 80.72,35.58 80.6,36.65 C80.48,37.72 79.47,39.38 80.24,40.28 C81.01,41.18 82.44,40.1 82.8,39.75 C83.16,39.4 83.63,38.68 84.52,38.44 C85.41,38.2 87.02,37.73 87.02,36.66 C87.02,35.59 85.12,35.06 84.11,34.88 C83.1,34.7 82.03,33.33 82.15,32.62 C82.27,31.91 82.98,31.43 83.81,31.43 C84.64,31.43 84.88,32.98 86.42,33.03 C87.96,33.08 89.03,30.36 90.52,30.42 C92.01,30.48 92.78,32.5 94.56,33.45 C96.34,34.4 97.53,34.7 97.95,34.82 C98.37,34.94 98.72,35.65 99.85,35.65 C100.98,35.65 102.05,31.79 102.41,31.19 C102.77,30.6 104.31,28.52 105.02,28.4 C105.73,28.28 108.23,28.58 110.37,27.75 C112.51,26.92 114.95,25.97 115.07,25.14 C115.19,24.31 111.92,23.06 111.98,20.92 C112.04,18.78 113.29,17.89 112.69,17.24 C112.1,16.59 111.26,16.94 110.19,17.72 C109.12,18.49 108.17,19.5 107.69,19.32 C107.21,19.14 105.67,17.42 104.9,17.24 C104.13,17.06 102.88,17.3 102.4,16.94 C101.92,16.58 100.14,15.28 97.23,11.53 C94.69,8.24 93.05,5.98 91.31,6.04 Z" fill="#7ADD8A"/>
  <path d="M10.85,108.88 C10.09,109.03 8.34,109.63 8.26,110.33 C8.16,111.24 8.73,111.51 10.08,111.51 C11.43,111.51 12,110.4 12,109.96 C12,109.52 11.19,108.82 10.85,108.88 Z" fill="#7ADD8A"/>
  <path d="M20.07,109.79 C19.71,109.24 18.35,109.47 17.85,110.26 C17.45,110.9 17.61,113.25 18.69,113.02 C19.55,112.83 19.53,111.78 19.73,111.54 C19.93,111.3 20.64,110.67 20.07,109.79 Z" fill="#7ADD8A"/>
  <path d="M23.57,98.78 C23,98.58 22.15,98.78 21.05,99.59 C19.95,100.4 18.93,102.07 18.53,102.28 C18.12,102.48 16.09,103.3 15.68,103.62 C15.27,103.94 15.07,106.47 16.09,107.2 C17.11,107.93 17.76,107.97 18.69,108.05 C19.62,108.13 20.97,107.85 21.17,108.29 C21.37,108.73 21.25,111.1 20.97,111.59 C20.69,112.08 19.63,113.01 19.51,114.44 C19.39,115.86 19.23,117.78 19.35,118.18 C19.47,118.58 22.97,119.89 23.38,119.97 C23.79,120.05 26.8,117.04 27.08,116.15 C27.36,115.25 27.73,112 27.85,111.63 C27.97,111.26 29.88,107.76 29.97,106.95 C30.06,106.14 29.69,104.43 29.36,104.02 C29.03,103.61 28.91,102.27 28.26,101.62 C27.61,100.97 25.74,101.13 25.74,101.13 L23.57,98.78 Z" fill="#7ADD8A"/>
  <path d="M70.93,65.33 C70.18,65.03 69.65,66.37 69.29,66.73 C68.93,67.09 68.41,68.17 68.85,68.81 C69.29,69.45 70.17,69.81 70.41,69.57 C70.65,69.33 71.59,68.38 71.49,67.41 C71.37,66.25 71.13,65.41 70.93,65.33 Z" fill="#7ADD8A"/>
  <path d="M39.53,98.22 C40.11,97.56 41.09,95.49 42.61,95.37 C43.74,95.28 45.73,96.46 46.12,96.89 C46.51,97.32 47.45,98.72 47.29,99.31 C47.13,99.89 46.16,101.34 45.22,102.39 C44.28,103.44 43.58,104.3 42.92,104.14 C42.26,103.98 41.67,103.24 40.66,103.24 C39.65,103.24 37.7,106.28 37.31,106.94 C36.92,107.6 36.45,108.62 35.79,108.62 C35.13,108.62 33.41,106.55 32.91,105.42 C32.4,104.29 31.9,103.63 32.05,102.81 C32.13,102.41 34,100.32 34.12,100.04 C34.24,99.77 34.63,98.05 35.87,97.74 C37.11,97.43 37.12,98.32 38.13,98.44 C39.14,98.56 39.4,98.37 39.53,98.22 Z" fill="#7ADD8A"/>
  <path d="M22.99,96.42 C22.77,96.82 23.21,99.01 23.69,99.11 C24.17,99.22 28.27,98.63 30.42,98.3 C32.57,97.98 39.31,94.91 40.22,94.91 C41.13,94.91 41.67,95.23 42.11,94.96 C42.54,94.69 43.94,93.4 44.43,93.13 C44.91,92.86 46.58,92.43 46.58,92.43 C46.58,92.43 48.2,93.45 49.27,93.56 C50.35,93.67 51.59,92.32 51.86,92.64 C52.13,92.96 51.38,94.42 50.89,95.33 C50.41,96.25 49.38,97.75 49.54,98.35 C49.7,98.94 50.46,100.67 51.1,101.26 C51.74,101.85 52.88,103.04 53.52,102.93 C54.16,102.82 57.45,97.22 57.72,97.17 C57.99,97.12 61.11,96.58 61.06,95.82 C61.01,95.07 59.71,95.17 59.55,94.85 C59.39,94.53 57.72,93.45 57.88,92.96 C58.04,92.48 58.69,91.34 59.66,91.29 C60.63,91.24 62.57,93.39 63.48,93.44 C64.4,93.49 67.25,93.92 68,93.66 C68.75,93.39 69.94,91.88 70.48,91.77 C71.02,91.66 71.93,91.99 71.93,91.99 C71.93,91.99 71.93,93.77 72.95,93.66 C73.97,93.55 74.08,92.85 74.24,91.83 C74.4,90.81 75.05,90 75.05,90 C75.05,90 76.4,88.55 77.31,87.85 C78.23,87.15 78.66,85.43 79.14,85.43 C79.62,85.43 80.16,86.35 80,87.58 C79.84,88.81 79.03,89.52 79.03,90.49 C79.03,91.46 79.19,92.43 79.84,92.43 C80.49,92.43 80.81,91.03 81.13,90.38 C81.45,89.73 83.98,86.66 84.09,86.13 C84.2,85.59 83.66,81.34 83.87,80.74 C84.09,80.15 85.65,78.05 86.08,75.14 C86.51,72.23 85.65,68.03 86.46,66.9 C87.27,65.77 88.78,66.52 89.37,65.66 C89.96,64.8 90.07,62.48 90.66,61.08 C91.25,59.68 92.92,57.09 92.92,54.83 C92.92,52.57 88.5,46.97 88.67,45.67 C88.83,44.38 89.37,42.98 89.05,42.22 C88.73,41.47 86.73,39.85 85.71,39.9 C84.69,39.95 84.69,41.89 85.12,42.16 C85.55,42.43 86.09,41.73 86.63,41.84 C87.17,41.95 88.19,43.08 86.74,44.21 C85.29,45.34 84.42,44.48 84.26,44.21 C84.1,43.94 84.1,41.68 83.4,41.73 C82.7,41.78 81.95,42.38 81.89,42.86 C81.84,43.34 82.21,44.04 81.84,44.69 C81.47,45.34 80.12,46.04 79.69,46.79 C79.26,47.54 79.85,56.97 79.8,57.94 C79.75,58.91 78.45,60.58 77.97,62.14 C77.49,63.7 76.41,66.66 75.6,67.26 C74.79,67.85 74.2,67.8 73.61,68.5 C73.02,69.2 71.24,72.05 70.43,72.65 C69.62,73.25 66.07,76.04 64.77,75.83 C63.47,75.62 62.13,74.81 62.24,73.84 C62.35,72.87 63.86,72.06 63.42,71.52 C62.99,70.98 60.24,72.06 59.54,73.03 C58.84,74 59.65,75.94 59.49,76.58 C59.33,77.23 58.47,79.49 58.2,80.03 C57.93,80.57 56.1,81.97 55.72,82.94 C55.34,83.91 55.5,85.15 55.29,85.53 C55.07,85.91 52.97,87.15 52.17,87.09 C51.36,87.04 49.75,85.2 48.72,85.2 C47.69,85.2 46.13,86.33 44.9,86.6 C43.66,86.87 39.41,86.6 37.79,86.44 C36.17,86.28 33.97,88.33 32.89,89.19 C31.81,90.05 28.58,92.63 27.99,93.28 C26.49,94.96 23.31,95.82 22.99,96.42 Z" fill="#7ADD8A"/>
  <path d="M91.31,6.04 C89.82,6.09 89.18,8.71 89.44,10.02 C89.7,11.33 90.36,15.13 90.26,16.44 C90.16,17.8 88.16,19.76 87.99,20.9 C87.82,22.04 88.14,23.33 87.96,23.81 C87.78,24.29 86.65,25.59 86.12,25.41 C85.59,25.23 84.34,23.92 83.15,23.75 C81.96,23.57 81.6,24.58 81.72,25.12 C81.84,25.65 82.43,26.55 82.02,27.26 C81.61,27.97 80.12,28.63 79.23,29.82 C78.34,31.01 78.4,32.14 78.52,32.61 C78.64,33.09 79.17,34.16 79.59,34.69 C80.01,35.22 80.72,35.58 80.6,36.65 C80.48,37.72 79.47,39.38 80.24,40.28 C81.01,41.18 82.44,40.1 82.8,39.75 C83.16,39.4 83.63,38.68 84.52,38.44 C85.41,38.2 87.02,37.73 87.02,36.66 C87.02,35.59 85.12,35.06 84.11,34.88 C83.1,34.7 82.03,33.33 82.15,32.62 C82.27,31.91 82.98,31.43 83.81,31.43 C84.64,31.43 84.88,32.98 86.42,33.03 C87.96,33.08 89.03,30.36 90.52,30.42 C92.01,30.48 92.78,32.5 94.56,33.45 C96.34,34.4 97.53,34.7 97.95,34.82 C98.37,34.94 98.72,35.65 99.85,35.65 C100.98,35.65 102.05,31.79 102.41,31.19 C102.77,30.6 104.31,28.52 105.02,28.4 C105.73,28.28 108.23,28.58 110.37,27.75 C112.51,26.92 114.95,25.97 115.07,25.14 C115.19,24.31 111.92,23.06 111.98,20.92 C112.04,18.78 113.29,17.89 112.69,17.24 C112.1,16.59 111.26,16.94 110.19,17.72 C109.12,18.49 108.17,19.5 107.69,19.32 C107.21,19.14 105.67,17.42 104.9,17.24 C104.13,17.06 102.88,17.3 102.4,16.94 C101.92,16.58 100.14,15.28 97.23,11.53 C94.69,8.24 93.05,5.98 91.31,6.04 Z" fill="url(#SVGID_1_)"/>
  <path d="M22.99,96.42 C22.77,96.82 23.21,99.01 23.69,99.11 C24.17,99.22 28.27,98.63 30.42,98.3 C32.57,97.98 39.31,94.91 40.22,94.91 C41.13,94.91 41.67,95.23 42.11,94.96 C42.54,94.69 43.94,93.4 44.43,93.13 C44.91,92.86 46.58,92.43 46.58,92.43 C46.58,92.43 48.2,93.45 49.27,93.56 C50.35,93.67 51.59,92.32 51.86,92.64 C52.13,92.96 51.38,94.42 50.89,95.33 C50.41,96.25 49.38,97.75 49.54,98.35 C49.7,98.94 50.46,100.67 51.1,101.26 C51.74,101.85 52.88,103.04 53.52,102.93 C54.16,102.82 57.45,97.22 57.72,97.17 C57.99,97.12 61.11,96.58 61.06,95.82 C61.01,95.07 59.71,95.17 59.55,94.85 C59.39,94.53 57.72,93.45 57.88,92.96 C58.04,92.48 58.69,91.34 59.66,91.29 C60.63,91.24 62.57,93.39 63.48,93.44 C64.4,93.49 67.25,93.92 68,93.66 C68.75,93.39 69.94,91.88 70.48,91.77 C71.02,91.66 71.93,91.99 71.93,91.99 C71.93,91.99 71.93,93.77 72.95,93.66 C73.97,93.55 74.08,92.85 74.24,91.83 C74.4,90.81 75.05,90 75.05,90 C75.05,90 76.4,88.55 77.31,87.85 C78.23,87.15 78.66,85.43 79.14,85.43 C79.62,85.43 80.16,86.35 80,87.58 C79.84,88.81 79.03,89.52 79.03,90.49 C79.03,91.46 79.19,92.43 79.84,92.43 C80.49,92.43 80.81,91.03 81.13,90.38 C81.45,89.73 83.98,86.66 84.09,86.13 C84.2,85.59 83.66,81.34 83.87,80.74 C84.09,80.15 85.65,78.05 86.08,75.14 C86.51,72.23 85.65,68.03 86.46,66.9 C87.27,65.77 88.78,66.52 89.37,65.66 C89.96,64.8 90.07,62.48 90.66,61.08 C91.25,59.68 92.92,57.09 92.92,54.83 C92.92,52.57 88.5,46.97 88.67,45.67 C88.83,44.38 89.37,42.98 89.05,42.22 C88.73,41.47 86.73,39.85 85.71,39.9 C84.69,39.95 84.69,41.89 85.12,42.16 C85.55,42.43 86.09,41.73 86.63,41.84 C87.17,41.95 88.19,43.08 86.74,44.21 C85.29,45.34 84.42,44.48 84.26,44.21 C84.1,43.94 84.1,41.68 83.4,41.73 C82.7,41.78 81.95,42.38 81.89,42.86 C81.84,43.34 82.21,44.04 81.84,44.69 C81.47,45.34 80.12,46.04 79.69,46.79 C79.26,47.54 79.85,56.97 79.8,57.94 C79.75,58.91 78.45,60.58 77.97,62.14 C77.49,63.7 76.41,66.66 75.6,67.26 C74.79,67.85 74.2,67.8 73.61,68.5 C73.02,69.2 71.24,72.05 70.43,72.65 C69.62,73.25 66.07,76.04 64.77,75.83 C63.47,75.62 62.13,74.81 62.24,73.84 C62.35,72.87 63.86,72.06 63.42,71.52 C62.99,70.98 60.24,72.06 59.54,73.03 C58.84,74 59.65,75.94 59.49,76.58 C59.33,77.23 58.47,79.49 58.2,80.03 C57.93,80.57 56.1,81.97 55.72,82.94 C55.34,83.91 55.5,85.15 55.29,85.53 C55.07,85.91 52.97,87.15 52.17,87.09 C51.36,87.04 49.75,85.2 48.72,85.2 C47.69,85.2 46.13,86.33 44.9,86.6 C43.66,86.87 39.41,86.6 37.79,86.44 C36.17,86.28 33.97,88.33 32.89,89.19 C31.81,90.05 28.58,92.63 27.99,93.28 C26.49,94.96 23.31,95.82 22.99,96.42 Z" fill="url(#SVGID_2_)"/>
</svg>
